icons/fetus_fill.svg

<svg width="48" height="48" viewBox="0 0 48 48" fill="none" xmlns="http://www.w3.org/2000/svg">
<path fill-rule="evenodd" clip-rule="evenodd" d="M28.7577 25.6123C29.7694 25.4624 30.7549 26.0137 31.1566 26.9543C31.639 28.0836 31.5503 29.3109 31.2427 30.3313C30.9244 31.3871 30.3173 32.4262 29.4728 33.3271C27.7513 35.1634 25.0164 36.4615 21.4732 36.284C20.6203 36.2413 19.8651 35.7194 19.5236 34.9367L17.7606 30.8965L15.6998 31.5709C14.5188 31.9574 13.2481 31.3133 12.8616 30.1323C12.4751 28.9513 13.1192 27.6806 14.3002 27.2941L18.3049 25.9835C19.4072 25.6227 20.6031 26.159 21.067 27.222L23.0402 31.7441C24.2816 31.5877 25.1931 31.1242 25.8225 30.5964L25.7697 30.6042C24.6842 30.7651 23.6411 30.1195 23.3008 29.0763L21.8543 24.642C21.469 23.4606 22.1143 22.1905 23.2956 21.8051C24.477 21.4198 25.7471 22.0651 26.1325 23.2465L26.9897 25.8743L28.7577 25.6123Z" fill="black"/>
<path d="M37 21.5C37 23.9853 34.9853 26 32.5 26C30.0147 26 28 23.9853 28 21.5C28 19.0147 30.0147 17 32.5 17C34.9853 17 37 19.0147 37 21.5Z" fill="black"/>
<path fill-rule="evenodd" clip-rule="evenodd" d="M17.2444 38.5039C21.0911 40.2956 25.4919 40.4858 29.4788 39.0327C33.4658 37.5796 36.7122 34.6023 38.5039 30.7556C40.2956 26.909 40.4858 22.5081 39.0327 18.5212C37.5796 14.5342 34.6023 11.2879 30.7556 9.49615C26.909 7.70446 22.5081 7.51422 18.5212 8.9673C14.5342 10.4204 11.2879 13.3977 9.49615 17.2444C7.70446 21.0911 7.51422 25.4919 8.9673 29.4788C10.4204 33.4658 13.3977 36.7122 17.2444 38.5039L16.4 40.3168C12.0725 38.3012 8.72292 34.649 7.08821 30.1637C5.4535 25.6784 5.66751 20.7274 7.68317 16.4C9.69883 12.0725 13.351 8.72292 17.8363 7.08821C22.3216 5.4535 27.2726 5.66751 31.6001 7.68317C35.9276 9.69883 39.2771 13.351 40.9118 17.8363C42.5465 22.3216 42.3325 27.2726 40.3168 31.6001C38.3012 35.9276 34.649 39.2771 30.1637 40.9118C25.6784 42.5465 20.7274 42.3325 16.4 40.3168L17.2444 38.5039Z" fill="black"/>
<path fill-rule="evenodd" clip-rule="evenodd" d="M15.9863 17.8415C15.9593 18.6806 15.5893 19.4381 14.8576 20.04L14.1104 20.6548C13.8484 20.8703 13.7732 21.0621 13.7547 21.1842C13.7354 21.3118 13.764 21.454 13.8607 21.5957C14.0509 21.8745 14.5451 22.171 15.3008 21.9696C15.8017 21.8361 16.4636 21.6885 17.0662 22.0152C17.3643 22.1768 17.5594 22.4064 17.6925 22.5945C17.8108 22.7618 17.9231 22.961 18.0212 23.1351C18.0278 23.1467 18.0343 23.1583 18.0408 23.1698L18.0629 23.209L19.6986 26.8353L17.8755 27.6576L16.2769 24.1136C16.2049 23.9862 16.1548 23.8986 16.1145 23.8332C16.0451 23.8456 15.9486 23.8668 15.8157 23.9022C14.322 24.3002 12.9233 23.7704 12.2086 22.7228C11.8528 22.2014 11.6759 21.5554 11.7772 20.8854C11.8792 20.2101 12.2504 19.5951 12.8397 19.1103L13.587 18.4955C13.901 18.2372 13.9799 18.0074 13.9873 17.7772C13.9966 17.4896 13.8921 17.0934 13.6187 16.5635C13.3504 16.0433 12.967 15.4833 12.5248 14.8832C12.3676 14.6698 12.1975 14.4443 12.0245 14.215C11.7364 13.8331 11.4404 13.4408 11.1834 13.077L12.8169 11.923C13.0614 12.269 13.3174 12.608 13.587 12.965C13.7636 13.1989 13.9461 13.4405 14.135 13.6969C14.5893 14.3135 15.0516 14.9786 15.3961 15.6465C15.7357 16.3047 16.0114 17.0598 15.9863 17.8415Z" fill="black"/>
</svg>

<svg
  xmlns="http://www.w3.org/2000/svg"
  width="24"
  height="24"
  viewBox="0 0 24 24"
  fill="none"
  stroke="currentColor"
  stroke-width="2"
  stroke-linecap="round"
  stroke-linejoin="round"
>
  <path
    fill-rule="evenodd"
    d="M28.758 25.612a2.25 2.25 0 0 1 2.399 1.342c.482 1.13.393 2.357.086 3.377-.319 1.056-.926 2.095-1.77 2.996-1.722 1.836-4.457 3.135-8 2.957a2.25 2.25 0 0 1-1.95-1.347l-1.762-4.04-2.061.674a2.25 2.25 0 0 1-1.4-4.277l4.005-1.31a2.25 2.25 0 0 1 2.762 1.238l1.973 4.522c1.242-.156 2.153-.62 2.783-1.148l-.053.008a2.25 2.25 0 0 1-2.47-1.528l-1.446-4.434a2.25 2.25 0 0 1 4.279-1.395l.857 2.627z"
    clip-rule="evenodd"
  />
  <path d="M37 21.5a4.5 4.5 0 1 1-9 0 4.5 4.5 0 0 1 9 0" />
  <path
    fill-rule="evenodd"
    d="M17.244 38.504A16 16 0 1 0 30.755 9.497a16 16 0 0 0-13.51 29.007l-.845 1.813A18 18 0 1 1 31.6 7.683a18 18 0 0 1-15.2 32.634z"
    clip-rule="evenodd"
  />
  <path
    fill-rule="evenodd"
    d="M15.986 17.842c-.027.839-.397 1.596-1.128 2.198l-.748.615c-.262.215-.337.407-.355.53a.57.57 0 0 0 .106.41c.19.28.684.576 1.44.375.5-.134 1.163-.281 1.765.045.298.162.493.391.627.58.118.167.23.366.328.54l.02.035.022.039 1.636 3.626-1.824.823-1.598-3.544a9 9 0 0 0-.163-.28c-.069.012-.165.033-.298.068-1.494.398-2.893-.132-3.607-1.18a2.57 2.57 0 0 1-.432-1.837c.102-.675.473-1.29 1.063-1.775l.747-.614c.314-.259.393-.489.4-.719.01-.287-.095-.684-.368-1.213-.269-.52-.652-1.08-1.094-1.68a75 75 0 0 0-.5-.669c-.289-.382-.585-.774-.842-1.138l1.634-1.154c.244.346.5.685.77 1.042q.266.35.548.732c.454.617.917 1.282 1.261 1.95.34.658.615 1.413.59 2.194"
    clip-rule="evenodd"
  />
</svg>
